src/svg/thumbs-down.svg

<svg version="1.2" baseProfile="tiny" xmlns="http://www.w3.org/2000/svg" width="24" height="24" viewBox="0 0 24 24"><path d="M17 5c-.755 0-1.438.289-1.965.751l-.188-.192c-.96-.737-3.665-1.559-5.847-1.559-1.879 0-2.607.293-3.252.552l-.316.124c-.834.305-1.578 1.229-1.738 2.2l-.664 5.972c-.174 1.039.441 2.127 1.4 2.478.394.144 2.512.405 3.883.56-.215 1.256-.312 2.405-.312 3.616 0 1.379 1.121 2.5 2.5 2.5s2.5-1.121 2.5-2.5c0-1.875.667-2.737 1.616-3.699.548.724 1.408 1.199 2.384 1.199 1.653 0 2.999-1.347 2.999-3v-6c-.001-1.656-1.346-3.002-3-3.002zm-6 14.5c0 .275-.225.5-.5.5s-.5-.225-.5-.5c0-1.805.256-3.241.479-4.293l.297-1.398-1.321.188c-.605-.05-3.934-.447-4.335-.552-.058-.028-.132-.18-.108-.321l.663-5.976c.037-.223.291-.539.443-.594l.377-.146c.544-.219 1.015-.408 2.506-.408 1.914 0 4.118.753 4.633 1.146.156.12.366.564.366.854v4.977c-.001.026-.04.649-.707 1.316-.913.913-2.293 2.293-2.293 5.207zm7-5.5c0 .552-.448 1-1 1s-1-.448-1-1v-6c0-.552.448-1 1-1s1 .448 1 1v6z"/></svg>

<?xml version="1.0" encoding="iso-8859-1"?>
<!-- Generator: Adobe Illustrator 16.2.1, SVG Export Plug-In . SVG Version: 6.00 Build 0)  -->
<svg version="1.2" baseProfile="tiny" id="Layer_1" xmlns="http://www.w3.org/2000/svg" xmlns:xlink="http://www.w3.org/1999/xlink"
	 x="0px" y="0px" width="24px" height="24px" viewBox="0 0 24 24" xml:space="preserve">
<path d="M17,5c-0.755,0-1.438,0.289-1.965,0.751c-0.064-0.062-0.116-0.14-0.188-0.192C13.887,4.822,11.182,4,9,4
	C7.121,4,6.393,4.293,5.748,4.552C5.645,4.594,5.541,4.637,5.432,4.676c-0.834,0.305-1.578,1.229-1.738,2.2l-0.664,5.972
	c-0.174,1.039,0.441,2.127,1.4,2.478c0.394,0.144,2.512,0.405,3.883,0.56c-0.215,1.256-0.312,2.405-0.312,3.616
	c0,1.379,1.121,2.5,2.5,2.5s2.5-1.121,2.5-2.5c0-1.875,0.667-2.737,1.616-3.699c0.548,0.724,1.408,1.199,2.384,1.199
	c1.653,0,2.999-1.347,2.999-3v-6C19.999,6.346,18.654,5,17,5z M11,19.5c0,0.275-0.225,0.5-0.5,0.5S10,19.775,10,19.5
	c0-1.805,0.256-3.241,0.479-4.293l0.297-1.398l-1.321,0.188C8.85,13.947,5.521,13.55,5.12,13.445
	c-0.058-0.028-0.132-0.18-0.108-0.321l0.663-5.976c0.037-0.223,0.291-0.539,0.443-0.594c0.131-0.049,0.254-0.099,0.377-0.146
	C7.039,6.189,7.51,6,9.001,6c1.914,0,4.118,0.753,4.633,1.146C13.79,7.266,14,7.71,14,8v4.977c-0.001,0.026-0.04,0.649-0.707,1.316
	C12.38,15.206,11,16.586,11,19.5z M18,14c0,0.552-0.448,1-1,1s-1-0.448-1-1V8c0-0.552,0.448-1,1-1s1,0.448,1,1V14z"/>
</svg>
